!!!COM:	Bach, Johann Sebastian
!!!OMV:	Jesu, deine tiefen Wunden
!!!OTL:	Jesu, deine tiefen Wunden
**kern	**fb	**kern	**kern	**kern	**kern	**kern	**kern	**kern	**kern	**kern	**kern
*part11	*part11	*part10	*part9	*part8	*part7	*part6	*part5	*part4	*part3	*part2	*part1
*staff11	*	*staff10	*staff9	*staff8	*staff7	*staff6	*staff5	*staff4	*staff3	*staff2	*staff1
*I"Continuo	*	*I"Voice	*I"Voice	*I"Voice	*I"Voice	*I"Viola	*I"Violin	*I"Violin	*I"Oboe	*I"Oboe	*I"Oboe
*I'Cont.	*	*I'V	*I'V	*I'V	*I'V	*I'Vla.	*I'Vln.	*I'Vln.	*I'Ob.	*I'Ob.	*I'Ob.
*clefF4	*	*clefF4	*clefGv2	*clefG2	*clefG2	*clefC3	*clefG2	*clefG2	*clefG2	*clefG2	*clefG2
*Trd0c0	*	*	*	*	*	*	*	*	*	*	*
*k[b-e-]	*	*k[b-e-]	*k[b-e-]	*k[b-e-]	*k[b-e-]	*k[b-e-]	*k[b-e-]	*k[b-e-]	*k[b-e-]	*k[b-e-]	*k[b-e-]
*M4/4	*	*M4/4	*M4/4	*M4/4	*M4/4	*M4/4	*M4/4	*M4/4	*M4/4	*M4/4	*M4/4
=	=	=	=	=	=	=	=	=	=	=	=
4B-	.	4B-	4d	4f	4b-	4d	4f	4b-	4d	4f	4b-
4F	.	4F	4A	4f	4cc	4A	4f	4cc	4a	4f	4cc
4BB-	.	4BB-	8B-L	4.f	4dd	8B-L	4.f	4dd	4f	4.f	4dd
.	.	.	8AJ	.	.	8AJ	.	.	.	.	.
4C	n	4C	4G	.	4cc	4G	.	4cc	4c	.	4cc
.	.	.	.	8en	.	.	8en	.	.	8en	.
=3	=3	=3	=3	=3	=3	=3	=3	=3	=3	=3	=3
8DL	6	8DL	8FL	4d	4b-	8FL	4d	4dd	4f	4d	4dd
8EnJ	6 5	8EnJ	8GJ	.	.	8GJ	.	.	.	.	.
4F	.	4F	8.AL	8cL	4a	8.AL	8cL	4a	8fL	8cL	4a
.	.	.	.	8fJ	.	.	8fJ	.	8cJ	8fJ	.
.	.	.	16B-Jk	.	.	16B-Jk	.	.	.	.	.
4C	4	8cL	8cL	8fL	4g	8cL	8fL	4g	4c	8fL	4g
.	n	8CJ	8GJ	8enJ	.	8GJ	8enJ	.	.	8enJ	.
4FF;	.	4F;	4A;	4f;	4f;	4A;	4f;	4f;	4c;	4f;	4f;
=4	=4	=4	=4	=4	=4	=4	=4	=4	=4	=4	=4
4G	.	4G	4B-	4d	4b-	4B-	4d	4b-	4g	4d	4b-
8FL	.	8FL	4A	4f	4cc	4A	4f	4cc	4a	4f	4cc
8E-J	.	8E-J	.	.	.	.	.	.	.	.	.
8DL	6	8DL	4B-	4f	4dd	4B-	4f	4dd	4f	4f	4dd
8CJ	.	8CJ	.	.	.	.	.	.	.	.	.
8BB-L	5 4 2	8BB-L	4c	4f	4ee-	4c	4f	4ee-	4c	4f	4ee-
8AAJ	.	8AAJ	.	.	.	.	.	.	.	.	.
=5	=5	=5	=5	=5	=5	=5	=5	=5	=5	=5	=5
4BB-	.	4BB-	8cL	4f	4dd	8cL	4f	4dd	8.dL	4f	4dd
.	.	.	8B-J	.	.	8B-J	.	.	.	.	.
.	.	.	.	.	.	.	.	.	16e-Jk	.	.
4FF	4	4FF	8B-L	4f	4cc	8B-L	4f	4cc	8fL	4f	4cc
.	3	.	8AJ	.	.	8AJ	.	.	8cJ	.	.
2BB-;	.	2BB-;	2d;	2f;	2b-;	2d;	2f;	2b-;	2d;	2f;	2b-;
=6:|!	=6:|!	=6:|!	=6:|!	=6:|!	=6:|!	=6:|!	=6:|!	=6:|!	=6:|!	=6:|!	=6:|!
8B-L	.	8B-L	4f	4b-	4dd	4f	4b-	4dd	4f	4b-	4dd
8AJ	.	8AJ	.	.	.	.	.	.	.	.	.
4G	6	4G	4g	4b-	4ee-	4g	4b-	4ee-	4g	4b-	4ee-
4F	.	4F	8cL	4a	4ff	8cL	4a	4ff	8cL	4a	4ff
.	.	.	8dJ	.	.	8dJ	.	.	8dJ	.	.
4C	5	4C	4e-	8gL	4ee-	4e-	8gL	4ee-	4e-	8gL	4ee-
.	6	.	.	8aJ	.	.	8aJ	.	.	8aJ	.
=7	=7	=7	=7	=7	=7	=7	=7	=7	=7	=7	=7
!!pagebreak:original
8DL	6	8DL	4f	4b-	4dd	4f	4b-	4dd	4f	4b-	4dd
8E-J	.	8E-J	.	.	.	.	.	.	.	.	.
4F	.	4F	4f	4a	4cc	4f	4a	4cc	4f	4a	4cc
2BB-;	.	2BB-;	2f;	2b-;	2dd;	2f;	2b-;	2dd;	2f;	2b-;	2dd;
=8	=8	=8	=8	=8	=8	=8	=8	=8	=8	=8	=8
8BB-L	.	8BB-L	4d	4b-	4ff	4d	4b-	4ff	4d	4b-	4ff
8CJ	.	8CJ	.	.	.	.	.	.	.	.	.
8DL	.	8DL	4d	4b-	4ff	4d	4b-	4ff	4d	4b-	4ff
8BB-J	.	8BB-J	.	.	.	.	.	.	.	.	.
8E-L	.	8E-L	4e-	4b-	4gg	4e-	4b-	4gg	4e-	4b-	4gg
8DJ	.	8DJ	.	.	.	.	.	.	.	.	.
8E-L	6 4 2	8E-L	4c	4a	4ff	4c	4a	4ff	8cL	4a	4ff
8FJ	.	8FJ	.	.	.	.	.	.	8aJ	.	.
=9	=9	=9	=9	=9	=9	=9	=9	=9	=9	=9	=9
8GL	6	8GL	4B-	4g	4ee-	4B-	4g	4ee-	4b-	4g	4ee-
8AJ	6 5	8AJ	.	.	.	.	.	.	.	.	.
4B-	.	4B-	4B-	4f	4dd	4B-	4f	4dd	8fL	4f	4dd
.	.	.	.	.	.	.	.	.	8gJ	.	.
2F;	.	2F;	2A;	2f;	2cc;	2A;	2f;	2cc;	2a;	2f;	2cc;
=10	=10	=10	=10	=10	=10	=10	=10	=10	=10	=10	=10
4B-	.	4B-	8B-L	4f	8ddL	8B-L	4f	8ddL	8ddL	4f	8ddL
.	.	.	8cJ	.	8ee-J	8cJ	.	8ee-J	8ccJ	.	8ee-J
4BB-	.	4BB-	[4d	8b-L	4ff	[4d	8b-L	4ff	[4b-	8b-L	4ff
.	.	.	.	8a-XJ	.	.	8a-XJ	.	.	8a-XJ	.
4C	5	4C	8d]	4g	4ee-	8d]	4g	4ee-	8b-L]	4g	4ee-
.	.	.	4c	.	.	4c	.	.	8e-J	.	.
4D	6	4D	.	4f	4dd	.	4f	4dd	4f	4f	4dd
.	.	.	[8B-	.	.	[8B-	.	.	.	.	.
=11	=11	=11	=11	=11	=11	=11	=11	=11	=11	=11	=11
4E-	5	4E-	8B-L]	8gL	4b-	8B-L]	8gL	4b-	4e-	8gL	4b-
.	.	.	8AnJ	8f#XJ	.	8AnJ	8f#XJ	.	.	8f#XJ	.
4E-	6	4E-	8GL	[4g	4cc	8GL	[4g	4cc	4cc	[4g	4cc
.	.	.	8AJ	.	.	8AJ	.	.	.	.	.
2D	4	2D	8B-	8g]	2dd	8B-	8g]	2dd	8b-L	8g]	2dd
.	.	.	16ALL	16f#LL	.	16ALL	16f#LL	.	16ccL	16f#LL	.
.	.	.	16GJJ	16enJJ	.	16GJJ	16enJJ	.	16ddJJ	16enJJ	.
.	#	.	4A	4f#	.	4A	4f#	.	4d	4f#	.
=12	=12	=12	=12	=12	=12	=12	=12	=12	=12	=12	=12
2G;	.	2G;	2G;	2d;	2b-;	2G;	2d;	2b-;	2d;	2d;	2b-;
8GL	.	8GL	4B-	4g	4dd	4B-	4g	4dd	4b-	4g	4dd
8FJ	.	8FnJ	.	.	.	.	.	.	.	.	.
8E-L	5 2	8E-L	4B-	4a-X	4ff	4B-	4a-X	4ff	4f	4a-X	4ff
8DJ	.	8DJ	.	.	.	.	.	.	.	.	.
=13	=13	=13	=13	=13	=13	=13	=13	=13	=13	=13	=13
!!pagebreak:original
8E-L	.	8E-L	4B-	4g	4ee-	4B-	4g	4ee-	4b-	4g	4ee-
8FJ	.	8FJ	.	.	.	.	.	.	.	.	.
8GL	5	8GL	4B-	8dL	4dd	4B-	8dL	4dd	4b-	8dL	4dd
8FJ	.	8FJ	.	8e-J	.	.	8e-J	.	.	8e-J	.
8E-L	6 4 2	8E-L	4An	4f	4cc	4An	4f	4cc	8ccL	4f	4cc
8DJ	.	8DJ	.	.	.	.	.	.	8a	.	.
8CL	7 4 2	8CL	[4B-	4f	4dd	[4B-	4f	4dd	8f	4f	4dd
8BB-J	.	8BB-J	.	.	.	.	.	.	8dJ	.	.
=14	=14	=14	=14	=14	=14	=14	=14	=14	=14	=14	=14
4F	5 4	2F	8B-]	2f	2cc	8B-]	2f	2cc	8e-L	2f	2cc
.	.	.	16ALL	.	.	16ALL	.	.	8dJ	.	.
.	.	.	16GJJ	.	.	16GJJ	.	.	.	.	.
4FF	3	.	4A	.	.	4A	.	.	8cL	.	.
.	.	.	.	.	.	.	.	.	16dL	.	.
.	.	.	.	.	.	.	.	.	16e-JJ	.	.
2BB-;	.	2BB-;	2d;	2f;	2b-;	2d;	2f;	2b-;	2d;	2f;	2b-;
=||	=||	=||	=||	=||	=||	=||	=||	=||	=||	=||	=||
*-	*-	*-	*-	*-	*-	*-	*-	*-	*-	*-	*-
!!!system-decoration: s1,s2,s3,s4,s5,s6,s7,s8,s9,s10,s11
